!!!COM: Schubert, Franz Peter
!!!CDT: 1797-1828
!!!OTL: Der Neugierige
!!!OPS: Opus 25
!!!SCT: DV 795
!!!YOR: Franz Schubert: Selected songs
!!!PPE: Max Friedlaender
!!!PSR: C.F. Peters 
!!!PSP: Frankfurt, London, New York
!!!PSD: n.d.
!!!PPG: pp.8-10
!!!ODT: 1823///
!!!ONB: The tempo of 81 quarter-notes per minute is taken from the following recorded performance
!!!MPN: Aksel Schiotz
!!!MPD: 1945///
!!!MPT: The Art of Aksel Schiotz, Album 2: Schubert: Die schoene Muellerin (Seraphim 60140)
!!!AMT: irregular
**kern
*M2/4
*MM81[Langsam]
*B:
*k[f#c#g#d#a#]
=1-
2r
=2
2r
=3
2r
=4
4r
8r
8f#
=5
8.b
16a
8.b
16dd#
=6
8b#
8cc#
8r
8cc#
=7
8.ff#
16ee
8.dd#
16cc#
=8
(8cc#
8dd#)
8r
8dd#
=9
8dd#
16dd#
16dd#
8ee
16dd#
16cc#
=10
8cc#
8b#
8r
8b#
=11
8cc#
(16ee#
16dd#)
8.cc#
16e#
=12
4f#
8r
8f#
=13
8.b
16a#
8.b
16dd#
=14
8b#
8cc#
8r
8cc#
=15
8.ff#
16ee
8.dd#
16cc#
=16
(8cc#
8dd#)
8r
8dd#
=17
(16dd#
16e#)
8e#
(16e#
16dd#)
8dd#
=18
8b#
8cc#
8r
(16cc#
16a)
=19
(16g#
16ff#)
(16ee#
16dd#)
(16cc#
16a)
(16b
16g#)
=20
4f#
4r
=21
2r
=22
4r
8r
8f#
=23
*M3/4
4.b
8b
8a#
8b
=24
(8.cc#
16a#)
4b
8r
8cc#
=25
4.ddn
8dd
(12ff#
12ee)
12dd#
=26
2cc#
8r
8f#
=27
4.b
8b
8dd#
8dd#
=28
(8.cc#
16a#)
4b
4ff#
=29
8ee
(16dd#
16cc#)
4a#
(8.cc#
16b)
=30
4b
4r
4ff#
=31
(16ff#
16ee)
(16dd#
16cc#)
4a#
(8.cc#
16b)
=32
4b
4r
4r
=33
4r
4ff#
16cc#
16cc#
16dd#
16cc#
=34
8b
8a#
8.r
16cc#
16cc#
16cc#
16cc#
16cc#
=35
4ddn
4r
8.r
16ee
=36
8ddn
8ee
8ffn
8ee
8dd
16ee
16ee
=37
8ddn
8ccn
4b
4an
=38
*G:
*k[f#]
4gn
4r
8.r
16ee
=39
8ddn
8ee
(16ggn
16ffn)
8ee
8dd
16ff#
16ee
=40
8ddn
8ccn
4b
4an
=41
4gn
4r
4r
=42
*B:
*k[f#c#g#d#a#]
4r
4r
8r
8f#
=43
4.b
8b
8a
8b
=44
(8.cc#
16a#)
4b
8r
8cc#
=45
4.ddn
8dd
(12ff#
12ee)
12dd
=46
2cc#
8r
8f#
=47
4.b
8b
8dd#
8dd#
=48
(8.cc#
16a#)
4b
4b#
=49
(16cc#
16ee)
(16dd#
16cc#)
(4bn
8.ff#)
16ee
=50
2dd#
4b#
=51
(16cc#
16ee)
(16dd#
16cc#)
(4a#
8.cc#)
16b
=52
4b
4r
4r
=53
2.r
=54
2.r
=55
2.r;
==
*-
!!!ENC: David Huron
!!!EMD: Paul von Hippel added leading and trailing bars of rest to ease proofreading.
!!!EMD: Paul von Hippel updated this file in the following ways (1998/9/2,21-22/):
!!!EMD:  (1) changed the representation of slurs from curly braces to parentheses 
!!!EMD:  (2) changed freeform comments into reference records and tandem interpretations
!!!EMD:  (3) changed final barline from quadruple (====) to double (==)
!!!EMD:  (4) added key signatures, key designations, and tempi
!!!EEV: Version 2.0
